X:1
T:Come to the Feast
T:Come to the Feast
T:William Augustine Ogden
T:Margaret Moody, 1891
T:Public Domain Courtesy of the Cyber Hymnal™
C:William Augustine Ogden
Z:Public Domain
Z:Courtesy of the Cyber Hymnal™
%%score ( 1 2 ) ( 3 4 )
L:1/8
Q:1/4=107
M:4/4
K:D
V:1 treble 
V:2 treble 
V:3 bass 
V:4 bass 
V:1
 [FA]2 [FA]>[FA] [FA]2 [DF]>[FA] | [Fd]2 [GB]2 [FA]4 | [FA]2 [EG]>[^DF] [EG]2 [=DF]>[EG] | %3
w: 1.~Come to the feast that the|Lord hath spread,|Here ev- ery soul may be|
w: 2.~Come to the feast, leave your|care and strife,|Come, for His word is with|
w: 3.~Come to the feast, hear the|Gos- pel word,|Come while your heart by its|
 [GB]2 [FA]2 [FA]4 | [Fd]2 [Fd]>[Fd] ([Fd][DF]) [EG]>[FA] | [GB]2 [AB]2 (B2 e2) | %6
w: tru- ly fed;|Come in the name * of your|“Liv- ing Head,” *|
w: bless- ings rife;|Now un- to you * is e-|ter- nal life, *|
w: power is stirred;|Fly to the ark * like the|wea- ry bird, *|
 [Gc]2 [Gc]>[Gc] [Gc]2 [GB]>[Gc] | [Fd]6 z2 ||"^Refrain" [FA]2 [FA]>[FA] ([FA][DF]) [EG]>[FA] | %9
w: Washed in the blood of the|Lamb.||
w: Washed in the blood of the|Lamb.|Washed in the blood * of the|
w: Washed in the blood of the|Lamb.||
 B6 [AB]2 | [GB]2 [GB]>[GB] [^Ge]2 [Gd]>[Gd] | ([Ac]4 [GB]2) z2 | %12
w: |||
w: Lamb, Washed|* in the blood of the|Lamb; *|
w: |||
 [FA]2 [FA]>[FA] ([FA][DF]) [EG]>[FA] | [GB]2 [AB]2 (B2 e2) | [Gc]2 [Gc]>[Gc] [Gc]2 [GB]>[Gc] | %15
w: |||
w: Come, and your souls * shall be|tru- ly fed, *|Washed in the blood of the|
w: |||
 [Fd]6 |] %16
w: |
w: Lamb.|
w: |
V:2
 x8 | x8 | x8 | x8 | x8 | x4 G4 | x8 | x8 || x8 | G2 G2 G2 x2 | x8 | x8 | x8 | x4 G4 | x8 | x6 |] %16
V:3
 [D,D]2 [D,D]>[D,D] [D,D]2 [D,A,]>[D,A,] | [D,A,]2 [D,D]2 [D,D]4 | %2
 A,2 A,>A, [A,,A,]2 [A,,A,]>[A,,A,] | [D,A,]2 [D,D]2 [D,D]4 | %4
 [D,A,]2 [D,A,]>[D,A,] [D,A,]2 [D,A,]>[D,D] | [G,D]2 [F,=D]2 (E2 B,2) | %6
 A,2 A,>A, [A,,A,]2 [A,,A,]>[A,,A,] | [D,A,]6 z2 || [D,D]2 [D,D]>[D,D] (DA,) [D,A,]>[D,D] | %9
 ([G,D]2 [G,D]2 [G,D]2 [F,^D]2) | [E,E]2 [E,E]>[E,E] [E,B,]2 [E,E]>[E,E] | (E4 [A,,C]2) z2 | %12
 [D,D]2 [D,D]>[D,D] (DA,) [D,A,]>[D,D] | [G,D]2 [F,^D]2 (E2 B,2) | %14
 A,2 A,>A, [A,,A,]2 [A,,A,]>[A,,A,] | [D,A,]6 |] %16
V:4
 x8 | x8 | A,2 A,>A, x4 | x8 | x8 | x4 E,4 | A,2 A,>A, x4 | x8 || x4 D,2 x2 | x8 | x8 | A,6 x2 | %12
 x4 D,2 x2 | x4 E,4 | A,2 A,>A, x4 | x6 |] %16

